img/cookie.svg

<svg width="82" height="91" viewBox="0 0 82 91" fill="none" xmlns="http://www.w3.org/2000/svg">
<circle cx="20.5" cy="13" r="4.5" stroke="#E73087"/>
<circle cx="41.5" cy="13" r="4.5" stroke="#E73087"/>
<circle cx="61" cy="12.5" r="5" stroke="#E73087"/>
<path d="M2 24V6C2 2.8 4.33333 2 5.5 2C27.6667 2 72.8 2 76 2C79.2 2 80 4 80 5C80 10.3199 80 16.9336 80 24M2 24V79C2 80.3333 2.8 83 6 83H8M2 24C2.4 23.6 54.1667 23.8333 80 24M80 24C80 47.2629 80 75.432 80 78.5C80 82.5 77 83.1667 75.5 83H74.5M8 83V86.5V87.7929C8 88.2456 8.17986 88.6799 8.5 89V89C8.82014 89.3201 9.25435 89.5 9.70711 89.5H11H13.7929C14.2456 89.5 14.6799 89.3201 15 89V89C15.3201 88.6799 15.5 88.2456 15.5 87.7929V83M8 83H15.5M15.5 83H67M67 83V87.5V87.7929C67 88.2456 67.1799 88.6799 67.5 89V89C67.8201 89.3201 68.2544 89.5 68.7071 89.5H69.5H71.9839C72.6345 89.5 73.2585 89.2415 73.7185 88.7815V88.7815C73.9049 88.5951 74.0601 88.3798 74.178 88.1439L74.2037 88.0926C74.3986 87.7029 74.5 87.2732 74.5 86.8374V83M67 83H74.5M15.5 8L26 18M36 8L47 18M53.5 12.5H69M12 35.5V72C12 72.6667 12.4 74 14 74C15.6 74 51.3333 74 69 74C69.6667 74 71 73.5 71 71.5C71 69.5 71 46.6667 71 35.5C71 34.5 70.4 32.5 68 32.5C65.6 32.5 31.3333 32.5 14.5 32.5C13.6667 32.5 12 33.1 12 35.5ZM31.9262 44.5H49.5738C50.7302 44.5 51.7631 43.7766 52.1583 42.6898V42.6898C52.8104 40.8963 51.4822 39 49.5738 39H31.9262C30.0178 39 28.6896 40.8963 29.3417 42.6898V42.6898C29.7369 43.7766 30.7698 44.5 31.9262 44.5Z" stroke="#FFE602" stroke-width="3"/>
</svg>

<svg width="82" height="91" fill="none" xmlns="http://www.w3.org/2000/svg"><circle cx="20.5" cy="13" r="4.5" stroke="#E73087"/><circle cx="41.5" cy="13" r="4.5" stroke="#E73087"/><circle cx="61" cy="12.5" r="5" stroke="#E73087"/><path d="M2 24V6c0-3.2 2.333-4 3.5-4H76c3.2 0 4 2 4 3v19M2 24v55c0 1.333.8 4 4 4h2M2 24c.4-.4 52.167-.167 78 0m0 0v54.5c0 4-3 4.667-4.5 4.5h-1M8 83v4.793A1.707 1.707 0 0 0 9.707 89.5h4.086a1.707 1.707 0 0 0 1.707-1.707V83M8 83h7.5m0 0H67m0 0v4.793a1.707 1.707 0 0 0 1.707 1.707h3.277a2.452 2.452 0 0 0 2.194-1.356l.026-.051c.195-.39.296-.82.296-1.256V83M67 83h7.5m-59-75L26 18M36 8l11 10m6.5-5.5H69m-57 23V72c0 .667.4 2 2 2h55c.667 0 2-.5 2-2.5v-36c0-1-.6-3-3-3H14.5c-.833 0-2.5.6-2.5 3zm19.926 9h17.648a2.75 2.75 0 0 0 0-5.5H31.926a2.75 2.75 0 0 0 0 5.5z" stroke="#E73087" stroke-width="3"/></svg>
